Icons/com_owncloud_android.svg

<svg viewBox="0 0 48 48" xmlns:xlink="http://www.w3.org/1999/xlink">
 <defs>
  <linearGradient id="0">
   <stop stop-opacity="0"/>
   <stop offset="1"/>
  </linearGradient>
  <linearGradient xlink:href="#0" id="1" gradientUnits="userSpaceOnUse" gradientTransform="translate(4e-7,-48)" y1="47" x2="0" y2="1"/>
  <clipPath id="2">
   <g transform="translate(0,-1004.3622)">
    <rect rx="4" y="1005.36" x="1" height="46" width="46" fill="#1890d0"/>
   </g>
  </clipPath>
  <clipPath id="3">
   <g transform="translate(0,-1004.3622)">
    <rect rx="4" y="1005.36" x="1" height="46" width="46" fill="#1890d0"/>
   </g>
  </clipPath>
 </defs>
 <g>
  <g transform="translate(0,-1004.3622)">
   <path d="m 5,1006.3622 c -2.216,0 -4,1.784 -4,4 l 0,37.25 c 0,2.216 1.784,4 4,4 l 38,0 c 2.216,0 4,-1.784 4,-4 l 0,-37.25 c 0,-2.216 -1.784,-4 -4,-4 l -38,0 z m -4,41.5 0,0.5 c 0,2.216 1.784,4 4,4 l 38,0 c 2.216,0 4,-1.784 4,-4 l 0,-0.5 c 0,2.216 -1.784,4 -4,4 l -38,0 c -2.216,0 -4,-1.784 -4,-4 z" opacity="0.02"/>
   <path d="m 1,1047.6122 0,0.25 c 0,2.216 1.784,4 4,4 l 38,0 c 2.216,0 4,-1.784 4,-4 l 0,-0.25 c 0,2.216 -1.784,4 -4,4 l -38,0 c -2.216,0 -4,-1.784 -4,-4 z" opacity="0.05"/>
   <rect width="46" height="46" x="1" y="1005.61" rx="4" opacity="0.1"/>
  </g>
 </g>
 <g>
  <g transform="translate(0,-1004.3622)">
   <rect rx="4" y="1005.36" x="1" height="46" width="46" fill="#e7e7e7"/>
  </g>
 </g>
 <g>
  <rect transform="scale(1,-1)" width="46" height="46" x="1" y="-46.998" rx="4" opacity="0.1" fill="url(#1)"/>
 </g>
 <g>
  <g clip-path="url(#2)">
   <g opacity="0.1">
    <g>
     <path d="M 20.296875 19.558594 C 20.296875 20.625 19.414062 21.492188 18.316406 21.492188 C 17.222656 21.492188 16.339844 20.625 16.339844 19.558594 C 16.339844 18.484375 17.222656 17.617188 18.316406 17.617188 C 19.414062 17.617188 20.296875 18.484375 20.296875 19.558594 Z M 20.296875 19.558594 " stroke="#f9f9f9" stroke-width="0.096"/>
     <path d="M 18.316406 26.292969 C 18.316406 28.25 16.691406 29.84375 14.6875 29.84375 C 12.683594 29.84375 11.0625 28.25 11.0625 26.292969 C 11.0625 24.332031 12.683594 22.742188 14.6875 22.742188 C 16.691406 22.742188 18.316406 24.332031 18.316406 26.292969 Z M 18.316406 26.292969 " stroke="#f9f9f9" stroke-width="0.096"/>
     <path d="M 22.699219 23.929688 C 22.699219 26.046875 20.945312 27.769531 18.777344 27.769531 C 16.613281 27.769531 14.859375 26.046875 14.859375 23.929688 C 14.859375 21.808594 16.613281 20.09375 18.777344 20.09375 C 20.945312 20.09375 22.699219 21.808594 22.699219 23.929688 Z M 22.699219 23.929688 " stroke="#f9f9f9" stroke-width="0.096"/>
     <path d="M 30.398438 22.375 C 30.398438 24.335938 28.777344 25.925781 26.773438 25.925781 C 24.769531 25.925781 23.148438 24.335938 23.148438 22.375 C 23.148438 20.414062 24.769531 18.824219 26.773438 18.824219 C 28.777344 18.824219 30.398438 20.414062 30.398438 22.375 Z M 30.398438 22.375 " stroke="#f9f9f9" stroke-width="0.096"/>
     <path d="M 26.421875 19.613281 C 26.421875 21.574219 24.800781 23.160156 22.796875 23.160156 C 20.796875 23.160156 19.171875 21.574219 19.171875 19.613281 C 19.171875 17.652344 20.796875 16.0625 22.796875 16.0625 C 24.800781 16.0625 26.421875 17.652344 26.421875 19.613281 Z M 26.421875 19.613281 " stroke="#f9f9f9" stroke-width="0.096"/>
     <path d="M 36.9375 27.664062 C 36.9375 28.785156 36.007812 29.691406 34.863281 29.691406 C 33.71875 29.691406 32.789062 28.785156 32.789062 27.664062 C 32.789062 26.542969 33.71875 25.632812 34.863281 25.632812 C 36.007812 25.632812 36.9375 26.542969 36.9375 27.664062 Z M 36.9375 27.664062 " stroke="#f9f9f9" stroke-width="0.096"/>
     <path d="M 34.375 26.101562 C 34.375 28.21875 32.621094 29.9375 30.457031 29.9375 C 28.289062 29.9375 26.535156 28.21875 26.535156 26.101562 C 26.535156 23.980469 28.289062 22.261719 30.457031 22.261719 C 32.621094 22.261719 34.375 23.980469 34.375 26.101562 Z M 34.375 26.101562 " stroke="#f9f9f9" stroke-width="0.096"/>
     <path d="M 20.613281 27.859375 C 20.613281 28.980469 19.683594 29.886719 18.539062 29.886719 C 17.394531 29.886719 16.464844 28.980469 16.464844 27.859375 C 16.464844 26.738281 17.394531 25.828125 18.539062 25.828125 C 19.683594 25.828125 20.613281 26.738281 20.613281 27.859375 Z M 20.613281 27.859375 " stroke="#f9f9f9" stroke-width="0.096"/>
     <path d="M 28.992188 24.964844 C 28.992188 27.667969 26.75 29.859375 23.992188 29.859375 C 21.230469 29.859375 18.992188 27.667969 18.992188 24.964844 C 18.992188 22.265625 21.230469 20.074219 23.992188 20.074219 C 26.75 20.074219 28.992188 22.265625 28.992188 24.964844 Z M 28.992188 24.964844 " stroke="#f9f9f9" stroke-width="0.128"/>
    </g>
   </g>
  </g>
 </g>
 <g>
  <g clip-path="url(#3)">
   <g transform="translate(0,-1)">
    <g>
     <path d="M 20.296875 19.558594 C 20.296875 20.625 19.414062 21.492188 18.316406 21.492188 C 17.222656 21.492188 16.339844 20.625 16.339844 19.558594 C 16.339844 18.484375 17.222656 17.617188 18.316406 17.617188 C 19.414062 17.617188 20.296875 18.484375 20.296875 19.558594 Z M 20.296875 19.558594 " fill="#1a2d44" stroke="#f9f9f9" stroke-width="0.096"/>
     <path d="M 18.316406 26.292969 C 18.316406 28.25 16.691406 29.84375 14.6875 29.84375 C 12.683594 29.84375 11.0625 28.25 11.0625 26.292969 C 11.0625 24.332031 12.683594 22.742188 14.6875 22.742188 C 16.691406 22.742188 18.316406 24.332031 18.316406 26.292969 Z M 18.316406 26.292969 " fill="#1a2d44" stroke="#f9f9f9" stroke-width="0.096"/>
     <path d="M 22.699219 23.929688 C 22.699219 26.046875 20.945312 27.769531 18.777344 27.769531 C 16.613281 27.769531 14.859375 26.046875 14.859375 23.929688 C 14.859375 21.808594 16.613281 20.09375 18.777344 20.09375 C 20.945312 20.09375 22.699219 21.808594 22.699219 23.929688 Z M 22.699219 23.929688 " fill="#1a2d44" stroke="#f9f9f9" stroke-width="0.096"/>
     <path d="M 30.398438 22.375 C 30.398438 24.335938 28.777344 25.925781 26.773438 25.925781 C 24.769531 25.925781 23.148438 24.335938 23.148438 22.375 C 23.148438 20.414062 24.769531 18.824219 26.773438 18.824219 C 28.777344 18.824219 30.398438 20.414062 30.398438 22.375 Z M 30.398438 22.375 " fill="#1a2d44" stroke="#f9f9f9" stroke-width="0.096"/>
     <path d="M 26.421875 19.613281 C 26.421875 21.574219 24.800781 23.160156 22.796875 23.160156 C 20.796875 23.160156 19.171875 21.574219 19.171875 19.613281 C 19.171875 17.652344 20.796875 16.0625 22.796875 16.0625 C 24.800781 16.0625 26.421875 17.652344 26.421875 19.613281 Z M 26.421875 19.613281 " fill="#1a2d44" stroke="#f9f9f9" stroke-width="0.096"/>
     <path d="M 36.9375 27.664062 C 36.9375 28.785156 36.007812 29.691406 34.863281 29.691406 C 33.71875 29.691406 32.789062 28.785156 32.789062 27.664062 C 32.789062 26.542969 33.71875 25.632812 34.863281 25.632812 C 36.007812 25.632812 36.9375 26.542969 36.9375 27.664062 Z M 36.9375 27.664062 " fill="#1a2d44" stroke="#f9f9f9" stroke-width="0.096"/>
     <path d="M 34.375 26.101562 C 34.375 28.21875 32.621094 29.9375 30.457031 29.9375 C 28.289062 29.9375 26.535156 28.21875 26.535156 26.101562 C 26.535156 23.980469 28.289062 22.261719 30.457031 22.261719 C 32.621094 22.261719 34.375 23.980469 34.375 26.101562 Z M 34.375 26.101562 " fill="#1a2d44" stroke="#f9f9f9" stroke-width="0.096"/>
     <path d="M 20.613281 27.859375 C 20.613281 28.980469 19.683594 29.886719 18.539062 29.886719 C 17.394531 29.886719 16.464844 28.980469 16.464844 27.859375 C 16.464844 26.738281 17.394531 25.828125 18.539062 25.828125 C 19.683594 25.828125 20.613281 26.738281 20.613281 27.859375 Z M 20.613281 27.859375 " fill="#1a2d44" stroke="#f9f9f9" stroke-width="0.096"/>
     <path d="M 28.992188 24.964844 C 28.992188 27.667969 26.75 29.859375 23.992188 29.859375 C 21.230469 29.859375 18.992188 27.667969 18.992188 24.964844 C 18.992188 22.265625 21.230469 20.074219 23.992188 20.074219 C 26.75 20.074219 28.992188 22.265625 28.992188 24.964844 Z M 28.992188 24.964844 " fill="#1a2d44" stroke="#f9f9f9" stroke-width="0.128"/>
    </g>
   </g>
  </g>
 </g>
 <g>
  <g transform="translate(0,-1004.3622)">
   <path d="m 1,1043.3622 0,4 c 0,2.216 1.784,4 4,4 l 38,0 c 2.216,0 4,-1.784 4,-4 l 0,-4 c 0,2.216 -1.784,4 -4,4 l -38,0 c -2.216,0 -4,-1.784 -4,-4 z" opacity="0.1"/>
  </g>
 </g>
</svg>

<svg viewBox="0 0 48 48"><defs><linearGradient id="linearGradient3764" x1="1" x2="47" gradientUnits="userSpaceOnUse" gradientTransform="translate(-48.000001,0.00221467)"><stop stop-color="#ddd" stop-opacity="1"/><stop offset="1" stop-color="#e7e7e7" stop-opacity="1"/></linearGradient><clipPath id="clipPath-719247735"><g transform="translate(0,-1004.3622)"><rect rx="4" y="1005.36" x="1" height="46" width="46" fill="#1890d0"/></g></clipPath><clipPath id="clipPath-732925158"><g transform="translate(0,-1004.3622)"><rect rx="4" y="1005.36" x="1" height="46" width="46" fill="#1890d0"/></g></clipPath></defs><g><path d="m 1 43 l 0 0.25 c 0 2.216 1.784 4 4 4 l 38 0 c 2.216 0 4 -1.784 4 -4 l 0 -0.25 c 0 2.216 -1.784 4 -4 4 l -38 0 c -2.216 0 -4 -1.784 -4 -4 z m 0 0.5 l 0 0.5 c 0 2.216 1.784 4 4 4 l 38 0 c 2.216 0 4 -1.784 4 -4 l 0 -0.5 c 0 2.216 -1.784 4 -4 4 l -38 0 c -2.216 0 -4 -1.784 -4 -4 z" opacity="0.02"/><path d="m 1 43.25 l 0 0.25 c 0 2.216 1.784 4 4 4 l 38 0 c 2.216 0 4 -1.784 4 -4 l 0 -0.25 c 0 2.216 -1.784 4 -4 4 l -38 0 c -2.216 0 -4 -1.784 -4 -4 z" opacity="0.05"/><path d="m 1 43 l 0 0.25 c 0 2.216 1.784 4 4 4 l 38 0 c 2.216 0 4 -1.784 4 -4 l 0 -0.25 c 0 2.216 -1.784 4 -4 4 l -38 0 c -2.216 0 -4 -1.784 -4 -4 z" opacity="0.1"/></g><g><rect width="46" height="46" x="-47" y="1" rx="4" transform="matrix(0,-1,1,0,0,0)" fill="url(#linearGradient3764)" fill-opacity="1"/></g><g><g clip-path="url(#clipPath-719247735)"><g opacity="0.1"><!-- color: #e7e7e7 --><g><path d="m 20.297 19.559 c 0 1.066 -0.883 1.934 -1.98 1.934 c -1.094 0 -1.977 -0.867 -1.977 -1.934 c 0 -1.074 0.883 -1.941 1.977 -1.941 c 1.098 0 1.98 0.867 1.98 1.941 m 0 0" stroke="#f9f9f9" stroke-width="0.096" fill="#000"/><path d="m 18.316 26.293 c 0 1.957 -1.625 3.551 -3.629 3.551 c -2 0 -3.625 -1.594 -3.625 -3.551 c 0 -1.961 1.621 -3.551 3.625 -3.551 c 2 0 3.629 1.59 3.629 3.551 m 0 0" stroke="#f9f9f9" stroke-width="0.096" fill="#000"/><path d="m 22.699 23.93 c 0 2.117 -1.754 3.84 -3.922 3.84 c -2.164 0 -3.918 -1.723 -3.918 -3.84 c 0 -2.121 1.754 -3.836 3.918 -3.836 c 2.168 0 3.922 1.715 3.922 3.836 m 0 0" stroke="#f9f9f9" stroke-width="0.096" fill="#000"/><path d="m 30.398 22.375 c 0 1.961 -1.621 3.551 -3.625 3.551 c -2 0 -3.625 -1.59 -3.625 -3.551 c 0 -1.961 1.621 -3.551 3.625 -3.551 c 2 0 3.625 1.59 3.625 3.551 m 0 0" stroke="#f9f9f9" stroke-width="0.096" fill="#000"/><path d="m 26.422 19.613 c 0 1.961 -1.621 3.547 -3.625 3.547 c -2 0 -3.625 -1.586 -3.625 -3.547 c 0 -1.961 1.625 -3.551 3.625 -3.551 c 2 0 3.625 1.59 3.625 3.551 m 0 0" stroke="#f9f9f9" stroke-width="0.096" fill="#000"/><path d="m 36.938 27.664 c 0 1.121 -0.93 2.027 -2.074 2.027 c -1.145 0 -2.074 -0.906 -2.074 -2.027 c 0 -1.121 0.93 -2.031 2.074 -2.031 c 1.145 0 2.074 0.91 2.074 2.031 m 0 0" stroke="#f9f9f9" stroke-width="0.096" fill="#000"/><path d="m 34.375 26.1 c 0 2.117 -1.754 3.836 -3.918 3.836 c -2.168 0 -3.922 -1.719 -3.922 -3.836 c 0 -2.121 1.754 -3.84 3.922 -3.84 c 2.164 0 3.918 1.719 3.918 3.84 m 0 0" stroke="#f9f9f9" stroke-width="0.096" fill="#000"/><path d="m 20.613 27.859 c 0 1.121 -0.93 2.027 -2.074 2.027 c -1.145 0 -2.074 -0.906 -2.074 -2.027 c 0 -1.121 0.93 -2.031 2.074 -2.031 c 1.145 0 2.074 0.91 2.074 2.031 m 0 0" stroke="#f9f9f9" stroke-width="0.096" fill="#000"/><path d="m 28.992 24.965 c 0 2.703 -2.242 4.895 -5 4.895 c -2.762 0 -5 -2.191 -5 -4.895 c 0 -2.699 2.238 -4.891 5 -4.891 c 2.758 0 5 2.191 5 4.891 m 0 0" stroke="#f9f9f9" stroke-width="0.128" fill="#000"/></g></g></g></g><g><g clip-path="url(#clipPath-732925158)"><g transform="translate(0,-1)"><!-- color: #e7e7e7 --><g><path d="m 20.297 19.559 c 0 1.066 -0.883 1.934 -1.98 1.934 c -1.094 0 -1.977 -0.867 -1.977 -1.934 c 0 -1.074 0.883 -1.941 1.977 -1.941 c 1.098 0 1.98 0.867 1.98 1.941 m 0 0" fill="#1a2d44" stroke="#f9f9f9" stroke-width="0.096"/><path d="m 18.316 26.293 c 0 1.957 -1.625 3.551 -3.629 3.551 c -2 0 -3.625 -1.594 -3.625 -3.551 c 0 -1.961 1.621 -3.551 3.625 -3.551 c 2 0 3.629 1.59 3.629 3.551 m 0 0" fill="#1a2d44" stroke="#f9f9f9" stroke-width="0.096"/><path d="m 22.699 23.93 c 0 2.117 -1.754 3.84 -3.922 3.84 c -2.164 0 -3.918 -1.723 -3.918 -3.84 c 0 -2.121 1.754 -3.836 3.918 -3.836 c 2.168 0 3.922 1.715 3.922 3.836 m 0 0" fill="#1a2d44" stroke="#f9f9f9" stroke-width="0.096"/><path d="m 30.398 22.375 c 0 1.961 -1.621 3.551 -3.625 3.551 c -2 0 -3.625 -1.59 -3.625 -3.551 c 0 -1.961 1.621 -3.551 3.625 -3.551 c 2 0 3.625 1.59 3.625 3.551 m 0 0" fill="#1a2d44" stroke="#f9f9f9" stroke-width="0.096"/><path d="m 26.422 19.613 c 0 1.961 -1.621 3.547 -3.625 3.547 c -2 0 -3.625 -1.586 -3.625 -3.547 c 0 -1.961 1.625 -3.551 3.625 -3.551 c 2 0 3.625 1.59 3.625 3.551 m 0 0" fill="#1a2d44" stroke="#f9f9f9" stroke-width="0.096"/><path d="m 36.938 27.664 c 0 1.121 -0.93 2.027 -2.074 2.027 c -1.145 0 -2.074 -0.906 -2.074 -2.027 c 0 -1.121 0.93 -2.031 2.074 -2.031 c 1.145 0 2.074 0.91 2.074 2.031 m 0 0" fill="#1a2d44" stroke="#f9f9f9" stroke-width="0.096"/><path d="m 34.375 26.1 c 0 2.117 -1.754 3.836 -3.918 3.836 c -2.168 0 -3.922 -1.719 -3.922 -3.836 c 0 -2.121 1.754 -3.84 3.922 -3.84 c 2.164 0 3.918 1.719 3.918 3.84 m 0 0" fill="#1a2d44" stroke="#f9f9f9" stroke-width="0.096"/><path d="m 20.613 27.859 c 0 1.121 -0.93 2.027 -2.074 2.027 c -1.145 0 -2.074 -0.906 -2.074 -2.027 c 0 -1.121 0.93 -2.031 2.074 -2.031 c 1.145 0 2.074 0.91 2.074 2.031 m 0 0" fill="#1a2d44" stroke="#f9f9f9" stroke-width="0.096"/><path d="m 28.992 24.965 c 0 2.703 -2.242 4.895 -5 4.895 c -2.762 0 -5 -2.191 -5 -4.895 c 0 -2.699 2.238 -4.891 5 -4.891 c 2.758 0 5 2.191 5 4.891 m 0 0" fill="#1a2d44" stroke="#f9f9f9" stroke-width="0.128"/></g></g></g></g><g><g transform="translate(0,-1004.3622)"><path d="m 1 1043.36 0 4 c 0 2.216 1.784 4 4 4 l 38 0 c 2.216 0 4 -1.784 4 -4 l 0 -4 c 0 2.216 -1.784 4 -4 4 l -38 0 c -2.216 0 -4 -1.784 -4 -4 z" opacity="0.1"/></g></g></svg>
